germany/districts/5954.svg

<?xml version="1.0" encoding="UTF-8" standalone="no"?>
<!-- Created with Inkscape (http://www.inkscape.org/) -->
<svg
   xmlns:dc="http://purl.org/dc/elements/1.1/"
   xmlns:cc="http://creativecommons.org/ns#"
   xmlns:rdf="http://www.w3.org/1999/02/22-rdf-syntax-ns#"
   xmlns:svg="http://www.w3.org/2000/svg"
   xmlns="http://www.w3.org/2000/svg"
   xmlns:sodipodi="http://sodipodi.sourceforge.net/DTD/sodipodi-0.dtd"
   xmlns:inkscape="http://www.inkscape.org/namespaces/inkscape"
   id="svg2"
   sodipodi:version="0.32"
   inkscape:version="0.46"
   width="402"
   height="484"
   version="1.0"
   sodipodi:docname="Wappen_des_Ennepe-Ruhr-Kreises.svg"
   inkscape:output_extension="org.inkscape.output.svg.inkscape">
  <metadata
     id="metadata7">
    <rdf:RDF>
      <cc:Work
         rdf:about="">
        <dc:format>image/svg+xml</dc:format>
        <dc:type
           rdf:resource="http://purl.org/dc/dcmitype/StillImage" />
      </cc:Work>
    </rdf:RDF>
  </metadata>
  <defs
     id="defs5">
    <inkscape:perspective
       sodipodi:type="inkscape:persp3d"
       inkscape:vp_x="0 : 526.18109 : 1"
       inkscape:vp_y="0 : 1000 : 0"
       inkscape:vp_z="744.09448 : 526.18109 : 1"
       inkscape:persp3d-origin="372.04724 : 350.78739 : 1"
       id="perspective9" />
    <inkscape:perspective
       id="perspective3445"
       inkscape:persp3d-origin="320 : 160 : 1"
       inkscape:vp_z="640 : 240 : 1"
       inkscape:vp_y="0 : 1000 : 0"
       inkscape:vp_x="0 : 240 : 1"
       sodipodi:type="inkscape:persp3d" />
  </defs>
  <sodipodi:namedview
     inkscape:window-height="693"
     inkscape:window-width="777"
     inkscape:pageshadow="2"
     inkscape:pageopacity="0.0"
     guidetolerance="10.0"
     gridtolerance="10.0"
     objecttolerance="10.0"
     borderopacity="1.0"
     bordercolor="#666666"
     pagecolor="#ffffff"
     id="base"
     showgrid="false"
     showguides="true"
     inkscape:guide-bbox="true"
     inkscape:zoom="1"
     inkscape:cx="303.81847"
     inkscape:cy="261.43929"
     inkscape:window-x="191"
     inkscape:window-y="5"
     inkscape:current-layer="svg2" />
  <path
     style="opacity:1;fill:#fcdd09;fill-opacity:1;fill-rule:nonzero;stroke:none;stroke-width:9.83899975;stroke-linecap:butt;stroke-linejoin:miter;marker:none;marker-start:none;marker-mid:none;marker-end:none;stroke-miterlimit:10;stroke-dasharray:none;stroke-dashoffset:0;stroke-opacity:1;visibility:visible;display:inline;overflow:visible;enable-background:accumulate"
     d="M 2,2 L 2,287.06122 C 2,395.05731 90.754,482 201,482 C 311.246,482 400,395.05731 400,287.06122 L 400,2 L 201,2 L 2,2 z"
     id="feld"
     sodipodi:nodetypes="ccscccc" />
  <path
     style="opacity:1;fill:#0f47af;fill-opacity:1;fill-rule:nonzero;stroke:#000000;stroke-width:4;stroke-linecap:butt;stroke-linejoin:miter;marker:none;marker-start:none;marker-mid:none;marker-end:none;stroke-miterlimit:4;stroke-dasharray:none;stroke-dashoffset:0;stroke-opacity:1;visibility:visible;display:inline;overflow:visible;enable-background:accumulate"
     d="M 343.64258,35.786219 C 307.83474,35.833109 307.80522,48.176839 271.9974,48.223719 C 236.18952,48.270629 236.16006,35.866229 200.35221,35.913139 C 164.54437,35.960019 164.64443,48.303739 128.83659,48.350639 C 93.028724,48.397529 92.999276,36.120039 57.191407,36.166959 C 27.92278,36.205279 22.519379,44.429189 2,47.462239 L 2,107.23839 C 22.63185,104.22168 27.987907,95.854609 57.320964,95.816199 C 93.128834,95.769319 93.158326,108.04675 128.96615,107.99987 C 164.77398,107.95297 164.80351,95.736179 200.61133,95.689289 C 236.41918,95.642389 236.3191,107.91984 272.12695,107.87296 C 307.93479,107.82606 307.96427,95.482359 343.77214,95.435459 C 373.55329,95.396459 378.56757,103.89037 400,106.73074 L 400,47.081499 C 378.51883,44.246249 373.44157,35.747179 343.64258,35.786219 z"
     id="wellenbalken1" />
  <path
     style="opacity:1;fill:#0f47af;fill-opacity:1;fill-rule:nonzero;stroke:#000000;stroke-width:4;stroke-linecap:butt;stroke-linejoin:miter;marker:none;marker-start:none;marker-mid:none;marker-end:none;stroke-miterlimit:4;stroke-dasharray:none;stroke-dashoffset:0;stroke-opacity:1;visibility:visible;display:inline;overflow:visible;enable-background:accumulate"
     d="M 343.64258,362.19388 C 307.83474,362.24076 307.80522,374.5845 271.9974,374.63138 C 236.18952,374.67828 236.16006,362.27387 200.35221,362.32079 C 164.54437,362.36768 164.64443,374.71139 128.83659,374.75829 C 93.028724,374.80519 92.999276,362.52771 57.191407,362.57462 C 38.669594,362.59887 29.656998,365.97963 20.397135,369.17411 C 29.697497,388.85438 42.190799,406.78957 57.320964,422.22385 C 57.341721,422.24501 57.429748,422.20269 57.450522,422.22385 C 93.121714,422.2085 93.203978,434.45435 128.96615,434.40753 C 164.77398,434.36062 164.80351,422.14385 200.61133,422.09694 C 236.41918,422.05003 236.3191,434.32748 272.12695,434.28061 C 307.93479,434.2337 307.96427,421.89002 343.77214,421.84311 C 344.18303,421.84258 344.5366,421.84043 344.93815,421.84311 C 359.96498,406.44319 372.49006,388.64927 381.73242,369.04719 C 371.94637,365.74315 363.06373,362.16843 343.64258,362.19388 z"
     id="wellenbalken2" />
  <path
     style="opacity:1;fill:#da121a;fill-opacity:1;fill-rule:nonzero;stroke:#000000;stroke-width:4;stroke-linecap:butt;stroke-linejoin:miter;marker:none;marker-start:none;marker-mid:none;marker-end:none;stroke-miterlimit:10;stroke-dasharray:none;stroke-dashoffset:0;stroke-opacity:1;visibility:visible;display:inline;overflow:visible;enable-background:accumulate"
     d="M 2,153.04082 L 2,287.06122 C 2,299.56936 3.2213978,311.77131 5.4980469,323.61224 L 396.50195,323.61224 C 398.7786,311.77131 400,299.56936 400,287.06122 L 400,153.04082 L 2,153.04082 z"
     id="balken"
     sodipodi:nodetypes="ccccccc" />
  <path
     style="opacity:1;fill:#ffffff;fill-opacity:1;fill-rule:nonzero;stroke:#000000;stroke-width:4;stroke-linecap:butt;stroke-linejoin:miter;marker:none;marker-start:none;marker-mid:none;marker-end:none;stroke-miterlimit:10;stroke-dasharray:none;stroke-dashoffset:0;stroke-opacity:1;visibility:visible;display:inline;overflow:visible;enable-background:accumulate"
     d="M 58.857143,153.04082 L 58.857143,209.89796 L 115.71429,209.89796 L 115.71429,153.04082 L 58.857143,153.04082 z M 115.71429,209.89796 L 115.71429,266.7551 L 172.57143,266.7551 L 172.57143,209.89796 L 115.71429,209.89796 z M 172.57143,209.89796 L 229.42857,209.89796 L 229.42857,153.04082 L 172.57143,153.04082 L 172.57143,209.89796 z M 229.42857,209.89796 L 229.42857,266.7551 L 286.28571,266.7551 L 286.28571,209.89796 L 229.42857,209.89796 z M 286.28571,209.89796 L 343.14286,209.89796 L 343.14286,265.35906 L 400,265.35906 L 400,208.50191 L 343.14286,208.50191 L 343.14286,153.04082 L 286.28571,153.04082 L 286.28571,209.89796 z M 286.28571,266.7551 L 286.28571,323.61224 L 343.14286,323.61224 L 343.14286,266.7551 L 286.28571,266.7551 z M 229.42857,266.7551 L 172.57143,266.7551 L 172.57143,323.61224 L 229.42857,323.61224 L 229.42857,266.7551 z M 115.71429,266.7551 L 58.857143,266.7551 L 58.857143,323.61224 L 115.71429,323.61224 L 115.71429,266.7551 z M 58.857143,266.7551 L 58.857143,209.89796 L 2,209.89796 L 2,266.7551 L 58.857143,266.7551 z"
     id="schach" />
  <path
     style="opacity:1;fill:none;fill-opacity:1;fill-rule:nonzero;stroke:#000000;stroke-width:4;stroke-linecap:butt;stroke-linejoin:miter;marker:none;marker-start:none;marker-mid:none;marker-end:none;stroke-miterlimit:10;stroke-dasharray:none;stroke-dashoffset:0;stroke-opacity:1;visibility:visible;display:inline;overflow:visible;enable-background:accumulate"
     d="M 2,2 L 2,287.06122 C 2,395.05731 90.754,482 201,482 C 311.246,482 400,395.05731 400,287.06122 L 400,2 L 2,2 z"
     id="schildrahmen"
     sodipodi:nodetypes="ccsccc" />
</svg>

<svg xmlns="http://www.w3.org/2000/svg" width="402" height="484" version="1.0"><path style="opacity:1;fill:#fcdd09;fill-opacity:1;fill-rule:nonzero;stroke:none;stroke-width:9.83899975;stroke-linecap:butt;stroke-linejoin:miter;marker:none;marker-start:none;marker-mid:none;marker-end:none;stroke-miterlimit:10;stroke-dasharray:none;stroke-dashoffset:0;stroke-opacity:1;visibility:visible;display:inline;overflow:visible;enable-background:accumulate" d="M2 2v285.061C2 395.057 90.754 482 201 482s199-86.943 199-194.939V2H201 2z"/><path style="opacity:1;fill:#0f47af;fill-opacity:1;fill-rule:nonzero;stroke:#000;stroke-width:4;stroke-linecap:butt;stroke-linejoin:miter;marker:none;marker-start:none;marker-mid:none;marker-end:none;stroke-miterlimit:4;stroke-dasharray:none;stroke-dashoffset:0;stroke-opacity:1;visibility:visible;display:inline;overflow:visible;enable-background:accumulate" d="M343.643 35.786c-35.808.047-35.838 12.39-71.646 12.438-35.807.047-35.837-12.358-71.645-12.31-35.808.046-35.708 12.39-71.515 12.437-35.808.047-35.838-12.231-71.646-12.184C27.923 36.205 22.52 44.429 2 47.462v59.776c20.632-3.016 25.988-11.383 55.321-11.422 35.808-.047 35.837 12.23 71.645 12.184 35.808-.047 35.838-12.264 71.645-12.31 35.808-.048 35.708 12.23 71.516 12.183 35.808-.047 35.837-12.39 71.645-12.438 29.781-.039 34.796 8.455 56.228 11.296V47.08c-21.481-2.835-26.558-11.334-56.357-11.295z"/><path style="opacity:1;fill:#0f47af;fill-opacity:1;fill-rule:nonzero;stroke:#000;stroke-width:4;stroke-linecap:butt;stroke-linejoin:miter;marker:none;marker-start:none;marker-mid:none;marker-end:none;stroke-miterlimit:4;stroke-dasharray:none;stroke-dashoffset:0;stroke-opacity:1;visibility:visible;display:inline;overflow:visible;enable-background:accumulate" d="M343.643 362.194c-35.808.047-35.838 12.39-71.646 12.437-35.807.047-35.837-12.357-71.645-12.31-35.808.047-35.708 12.39-71.515 12.437-35.808.047-35.838-12.23-71.646-12.183-18.521.024-27.534 3.405-36.794 6.6 9.3 19.68 21.794 37.615 36.924 53.049.02.021.109-.021.13 0 35.67-.015 35.753 12.23 71.515 12.184 35.808-.047 35.838-12.264 71.645-12.311 35.808-.047 35.708 12.23 71.516 12.184 35.808-.047 35.837-12.391 71.645-12.438.411 0 .765-.003 1.166 0 15.027-15.4 27.552-33.194 36.794-52.796-9.786-3.304-18.668-6.879-38.09-6.853z"/><path style="opacity:1;fill:#da121a;fill-opacity:1;fill-rule:nonzero;stroke:#000;stroke-width:4;stroke-linecap:butt;stroke-linejoin:miter;marker:none;marker-start:none;marker-mid:none;marker-end:none;stroke-miterlimit:10;stroke-dasharray:none;stroke-dashoffset:0;stroke-opacity:1;visibility:visible;display:inline;overflow:visible;enable-background:accumulate" d="M2 153.04v134.021a193.31 193.31 0 0 0 3.498 36.551h391.004a193.31 193.31 0 0 0 3.498-36.55V153.04H2z"/><path style="opacity:1;fill:#fff;fill-opacity:1;fill-rule:nonzero;stroke:#000;stroke-width:4;stroke-linecap:butt;stroke-linejoin:miter;marker:none;marker-start:none;marker-mid:none;marker-end:none;stroke-miterlimit:10;stroke-dasharray:none;stroke-dashoffset:0;stroke-opacity:1;visibility:visible;display:inline;overflow:visible;enable-background:accumulate" d="M58.857 153.04v56.858h56.857v-56.857H58.857zm56.857 56.858v56.857h56.857v-56.857h-56.857zm56.857 0h56.858v-56.857H172.57v56.857zm56.858 0v56.857h56.857v-56.857h-56.857zm56.857 0h56.857v55.461H400v-56.857h-56.857V153.04h-56.857v56.857zm0 56.857v56.857h56.857v-56.857h-56.857zm-56.857 0H172.57v56.857h56.858v-56.857zm-113.715 0H58.857v56.857h56.857v-56.857zm-56.857 0v-56.857H2v56.857h56.857z"/><path style="opacity:1;fill:none;fill-opacity:1;fill-rule:nonzero;stroke:#000;stroke-width:4;stroke-linecap:butt;stroke-linejoin:miter;marker:none;marker-start:none;marker-mid:none;marker-end:none;stroke-miterlimit:10;stroke-dasharray:none;stroke-dashoffset:0;stroke-opacity:1;visibility:visible;display:inline;overflow:visible;enable-background:accumulate" d="M2 2v285.061C2 395.057 90.754 482 201 482s199-86.943 199-194.939V2H2z"/></svg>
